pc/bycle-best/assets/img/byclebest_tab-about01_pc.svg

<svg width="131" height="131" viewBox="0 0 131 131" fill="none" xmlns="http://www.w3.org/2000/svg">
<rect y="47" width="131" height="37" fill="#DBECFB"/>
<rect x="85" width="131" height="37" transform="rotate(90 85 0)" fill="#DBECFB"/>
<path d="M37.366 75.1C36.1193 75.1587 34.924 75.1147 33.78 74.968C32.636 74.8213 31.6167 74.5427 30.722 74.132C29.8273 73.7213 29.116 73.1713 28.588 72.482C28.0747 71.778 27.818 70.9127 27.818 69.886C27.818 68.8887 28.148 68.0527 28.808 67.378C29.468 66.6887 30.3553 66.1973 31.47 65.904C32.5847 65.596 33.8167 65.5227 35.166 65.684C34.7993 65.1707 34.4547 64.6427 34.132 64.1C33.8093 63.5427 33.516 62.9707 33.252 62.384C31.844 62.4867 30.48 62.5747 29.16 62.648C27.84 62.7067 26.718 62.7287 25.794 62.714L25.464 60.14C26.2707 60.2133 27.29 60.2427 28.522 60.228C29.7687 60.2133 31.0667 60.162 32.416 60.074C32.0347 58.7247 31.844 57.4193 31.844 56.158H34.484C34.4693 56.774 34.506 57.3973 34.594 58.028C34.682 58.644 34.8067 59.2527 34.968 59.854C36.376 59.722 37.6887 59.5607 38.906 59.37C40.138 59.1793 41.106 58.9667 41.81 58.732L42.184 61.262C41.4947 61.4087 40.5853 61.5627 39.456 61.724C38.3413 61.8707 37.1313 62.01 35.826 62.142C36.2807 63.0807 36.838 63.9753 37.498 64.826C38.1727 65.662 38.95 66.4027 39.83 67.048L38.246 68.852C37.6153 68.4853 36.948 68.2067 36.244 68.016C35.54 67.8253 34.8433 67.73 34.154 67.73C33.4793 67.7153 32.8633 67.7887 32.306 67.95C31.7487 68.1113 31.3013 68.3533 30.964 68.676C30.6413 68.9987 30.48 69.402 30.48 69.886C30.48 70.6047 30.832 71.162 31.536 71.558C32.2547 71.9393 33.2153 72.196 34.418 72.328C35.6353 72.4453 36.9773 72.46 38.444 72.372C38.2827 72.592 38.1213 72.878 37.96 73.23C37.8133 73.5673 37.6813 73.9047 37.564 74.242C37.4613 74.5793 37.3953 74.8653 37.366 75.1ZM54.306 75.166C54.262 74.946 54.174 74.6673 54.042 74.33C53.9247 73.9927 53.778 73.6553 53.602 73.318C53.426 72.9807 53.25 72.7167 53.074 72.526C55.4207 72.5847 57.21 72.306 58.442 71.69C59.6887 71.074 60.312 70.2013 60.312 69.072C60.312 68.412 60.048 67.8987 59.52 67.532C58.992 67.1653 58.3027 66.982 57.452 66.982C56.792 66.982 56.088 67.0847 55.34 67.29C54.592 67.4807 53.8807 67.8033 53.206 68.258C52.546 68.698 51.9887 69.292 51.534 70.04L49.18 69.006C49.4733 68.4927 49.7227 67.8547 49.928 67.092C50.148 66.3147 50.324 65.508 50.456 64.672C50.588 63.836 50.6833 63.044 50.742 62.296C50.8007 61.548 50.808 60.932 50.764 60.448L53.514 60.778C53.5287 61.4967 53.47 62.3473 53.338 63.33C53.206 64.298 53.0007 65.2587 52.722 66.212C53.4993 65.6987 54.3133 65.3027 55.164 65.024C56.0147 64.7453 56.814 64.606 57.562 64.606C58.706 64.606 59.696 64.804 60.532 65.2C61.3827 65.5813 62.0427 66.1167 62.512 66.806C62.9813 67.4807 63.216 68.258 63.216 69.138C63.216 70.2527 62.8933 71.2573 62.248 72.152C61.6173 73.032 60.642 73.736 59.322 74.264C58.0167 74.792 56.3447 75.0927 54.306 75.166ZM57.958 61.064C57.5913 60.7707 57.1513 60.4773 56.638 60.184C56.1393 59.8907 55.6113 59.612 55.054 59.348C54.4967 59.084 53.9467 58.8567 53.404 58.666C52.876 58.4607 52.4067 58.3213 51.996 58.248L53.316 55.96C53.6973 56.0627 54.152 56.224 54.68 56.444C55.208 56.6493 55.758 56.884 56.33 57.148C56.9167 57.412 57.4667 57.676 57.98 57.94C58.508 58.204 58.9407 58.446 59.278 58.666L57.958 61.064ZM70.3 74.154C70.1973 73.5527 70.1167 72.8193 70.058 71.954C69.9993 71.074 69.9553 70.1207 69.926 69.094C69.9113 68.0527 69.9113 66.982 69.926 65.882C69.9553 64.782 69.9993 63.7113 70.058 62.67C70.1313 61.614 70.2193 60.6387 70.322 59.744C70.4393 58.8493 70.5713 58.0867 70.718 57.456L73.292 57.984C73.1307 58.512 72.9913 59.2013 72.874 60.052C72.7567 60.888 72.6613 61.812 72.588 62.824C72.5147 63.8213 72.4633 64.848 72.434 65.904C72.4193 66.96 72.4267 67.9867 72.456 68.984C72.4853 69.9813 72.5367 70.8833 72.61 71.69C72.6833 72.4967 72.7787 73.1493 72.896 73.648L70.3 74.154ZM79.65 72.966C77.1127 72.8927 75.6753 72.064 75.338 70.48C75.25 70.084 75.2207 69.644 75.25 69.16C75.2793 68.676 75.3893 68.1407 75.58 67.554L77.89 68.126C77.7873 68.4047 77.7287 68.654 77.714 68.874C77.714 69.094 77.7433 69.292 77.802 69.468C77.9927 69.996 78.77 70.282 80.134 70.326C80.794 70.3407 81.498 70.3187 82.246 70.26C83.0087 70.1867 83.7493 70.084 84.468 69.952C85.2013 69.82 85.8393 69.6733 86.382 69.512C86.3527 69.7173 86.316 69.996 86.272 70.348C86.2427 70.7 86.2207 71.0593 86.206 71.426C86.1913 71.778 86.1913 72.0713 86.206 72.306C85.5167 72.482 84.776 72.6213 83.984 72.724C83.2067 72.8267 82.4367 72.9 81.674 72.944C80.926 72.9733 80.2513 72.9807 79.65 72.966ZM76.35 62.23L76.196 59.524C76.7533 59.5973 77.4353 59.6413 78.242 59.656C79.0487 59.6707 79.8847 59.6633 80.75 59.634C81.63 59.59 82.466 59.524 83.258 59.436C84.0647 59.3333 84.732 59.2087 85.26 59.062L85.15 61.724C84.5633 61.8267 83.8813 61.922 83.104 62.01C82.3267 62.0833 81.52 62.142 80.684 62.186C79.8627 62.23 79.0707 62.2593 78.308 62.274C77.56 62.274 76.9073 62.2593 76.35 62.23ZM98.922 69.908C98.8927 69.4533 98.856 68.8593 98.812 68.126C98.768 67.378 98.7167 66.5787 98.658 65.728C98.614 64.8627 98.57 64.0193 98.526 63.198C98.4967 62.362 98.4673 61.6287 98.438 60.998C98.4233 60.3527 98.416 59.8907 98.416 59.612V56.202H101.584V59.612C101.584 59.8907 101.569 60.3527 101.54 60.998C101.525 61.6287 101.496 62.362 101.452 63.198C101.423 64.0193 101.379 64.8627 101.32 65.728C101.276 66.5787 101.232 67.378 101.188 68.126C101.144 68.8593 101.107 69.4533 101.078 69.908H98.922ZM100 75.342C99.4867 75.342 99.0467 75.1587 98.68 74.792C98.3133 74.4253 98.13 73.9853 98.13 73.472C98.13 72.9587 98.3133 72.5187 98.68 72.152C99.0467 71.7853 99.4867 71.602 100 71.602C100.513 71.602 100.953 71.7853 101.32 72.152C101.687 72.5187 101.87 72.9587 101.87 73.472C101.87 73.9853 101.687 74.4253 101.32 74.792C100.953 75.1587 100.513 75.342 100 75.342Z" fill="#367AD1"/>
</svg>

<svg width="131" height="131" fill="none" xmlns="http://www.w3.org/2000/svg"><path fill="#DBECFB" d="M0 47h131v37H0z"/><path fill="#DBECFB" d="M85 0v131H48V0z"/><path d="M37.366 75.1a20.564 20.564 0 01-3.586-.132c-1.144-.147-2.163-.425-3.058-.836-.895-.41-1.606-.96-2.134-1.65-.513-.704-.77-1.57-.77-2.596 0-.997.33-1.833.99-2.508.66-.69 1.547-1.18 2.662-1.474 1.115-.308 2.347-.381 3.696-.22a22.55 22.55 0 01-1.034-1.584 18.896 18.896 0 01-.88-1.716c-1.408.103-2.772.19-4.092.264-1.32.059-2.442.08-3.366.066l-.33-2.574c.807.073 1.826.103 3.058.088a73.15 73.15 0 003.894-.154c-.381-1.35-.572-2.655-.572-3.916h2.64c-.015.616.022 1.24.11 1.87.088.616.213 1.225.374 1.826a64.305 64.305 0 003.938-.484c1.232-.19 2.2-.403 2.904-.638l.374 2.53c-.69.147-1.599.3-2.728.462-1.115.147-2.325.286-3.63.418a15.137 15.137 0 001.672 2.684 12.418 12.418 0 002.332 2.222l-1.584 1.804a8.265 8.265 0 00-2.002-.836 7.968 7.968 0 00-2.09-.286 6.146 6.146 0 00-1.848.22c-.557.161-1.005.403-1.342.726-.323.323-.484.726-.484 1.21 0 .719.352 1.276 1.056 1.672.719.381 1.68.638 2.882.77 1.217.117 2.56.132 4.026.044-.161.22-.323.506-.484.858-.147.337-.279.675-.396 1.012a5.291 5.291 0 00-.198.858zm16.94.066a5.208 5.208 0 00-.264-.836 7.549 7.549 0 00-.44-1.012 3.695 3.695 0 00-.528-.792c2.347.059 4.136-.22 5.368-.836 1.247-.616 1.87-1.489 1.87-2.618 0-.66-.264-1.173-.792-1.54s-1.217-.55-2.068-.55c-.66 0-1.364.103-2.112.308-.748.19-1.46.513-2.134.968-.66.44-1.217 1.034-1.672 1.782l-2.354-1.034c.293-.513.543-1.151.748-1.914.22-.777.396-1.584.528-2.42.132-.836.227-1.628.286-2.376.059-.748.066-1.364.022-1.848l2.75.33c.015.719-.044 1.57-.176 2.552a19.785 19.785 0 01-.616 2.882c.777-.513 1.591-.91 2.442-1.188.85-.279 1.65-.418 2.398-.418 1.144 0 2.134.198 2.97.594.85.381 1.51.917 1.98 1.606.47.675.704 1.452.704 2.332 0 1.115-.323 2.12-.968 3.014-.63.88-1.606 1.584-2.926 2.112-1.305.528-2.977.829-5.016.902zm3.652-14.102a10.298 10.298 0 00-1.32-.88 20.08 20.08 0 00-1.584-.836 17.099 17.099 0 00-1.65-.682 7.691 7.691 0 00-1.408-.418l1.32-2.288c.381.103.836.264 1.364.484.528.205 1.078.44 1.65.704a34.85 34.85 0 011.65.792c.528.264.96.506 1.298.726l-1.32 2.398zM70.3 74.154a22.333 22.333 0 01-.242-2.2 75.518 75.518 0 01-.132-2.86 116.956 116.956 0 010-3.212c.03-1.1.073-2.17.132-3.212a64.78 64.78 0 01.264-2.926c.117-.895.25-1.657.396-2.288l2.574.528c-.161.528-.3 1.217-.418 2.068a41.79 41.79 0 00-.286 2.772 67.621 67.621 0 00-.154 3.08 71.188 71.188 0 00.022 3.08c.03.997.08 1.9.154 2.706.073.807.169 1.46.286 1.958l-2.596.506zm9.35-1.188c-2.537-.073-3.975-.902-4.312-2.486a4.76 4.76 0 01-.088-1.32c.03-.484.14-1.02.33-1.606l2.31.572a2.724 2.724 0 00-.176.748c0 .22.03.418.088.594.19.528.968.814 2.332.858a20.89 20.89 0 002.112-.066 26.142 26.142 0 002.222-.308 17.972 17.972 0 001.914-.44c-.03.205-.066.484-.11.836-.03.352-.051.711-.066 1.078a8.698 8.698 0 000 .88c-.69.176-1.43.315-2.222.418a31.47 31.47 0 01-2.31.22 32.12 32.12 0 01-2.024.022zm-3.3-10.736l-.154-2.706c.557.073 1.24.117 2.046.132.807.015 1.643.007 2.508-.022.88-.044 1.716-.11 2.508-.198.807-.103 1.474-.227 2.002-.374l-.11 2.662c-.587.103-1.269.198-2.046.286a69.486 69.486 0 01-4.796.264c-.748 0-1.4-.015-1.958-.044zm22.572 7.678a332.23 332.23 0 01-.11-1.782c-.044-.748-.095-1.547-.154-2.398-.044-.865-.088-1.709-.132-2.53-.03-.836-.059-1.57-.088-2.2a69.29 69.29 0 01-.022-1.386v-3.41h3.168v3.41c0 .279-.015.74-.044 1.386-.015.63-.044 1.364-.088 2.2a77.32 77.32 0 01-.132 2.53 340.258 340.258 0 01-.242 4.18h-2.156zM100 75.342a1.8 1.8 0 01-1.32-.55 1.8 1.8 0 01-.55-1.32 1.8 1.8 0 01.55-1.32 1.8 1.8 0 011.32-.55 1.8 1.8 0 011.32.55 1.8 1.8 0 01.55 1.32 1.8 1.8 0 01-.55 1.32 1.8 1.8 0 01-1.32.55z" fill="#367AD1"/></svg>
